X:71
T: Jungfer Doertchen
N: Q2057J
O: Nordeuropa, Schweden
N: Textverwandte Ballade aus Schweden. Modulation in die parallele
N: Molltonart.
R: Ballade, Todesahnung, Tod, Selbstmord
M: 6/4
L: 1/8
K: G
GAB2B2A2 | G2G2B2d2d2c2 | B2z2
B2d2d2d2 | d2c2B2B2A2B2 | G2z2
GAB2B2A2 | G2G2B2d2d2c2 | B2z2
A2B4D2 | E4F2G4F2 | E4

